Hatter-kde-dark/actions/24/format-text-symbol.svg

<svg xmlns="http://www.w3.org/2000/svg" viewBox="0 0 24 24">
  <defs id="defs3051">
    <style type="text/css" id="current-color-scheme">
      .ColorScheme-Text {
        color:#dedede;
      }
      </style>
  </defs>
 <path style="fill:currentColor;fill-opacity:1;stroke:none" 
     d="M 9 4 C 9 4 4 4 4 9 C 4.9988232 7.0023537 5.9984639 6.0023509 8.9902344 6 C 8.9782762 16.936865 6.002485 17.692212 6 19.4375 C 7.5008252 20.5896 9.8453726 19.951 10.017578 17.6875 L 10.994141 6 L 14.978516 6 L 14 17.75 C 14 20.75 18 20.75 19 17.75 L 20 14.75 C 19 16.75 16.000165 19.749966 16.087891 16.697266 L 16.978516 6 L 20 6 L 20 4 L 9 4 z "
     class="ColorScheme-Text"
     />
</svg>

<?xml version="1.0" encoding="UTF-8"?>
<svg viewBox="0 0 24 24" xmlns="http://www.w3.org/2000/svg">
 <defs id="defs3051">
  <style id="current-color-scheme" type="text/css">.ColorScheme-Text {
        color:#dedede;
      }</style>
 </defs>
 <path class="ColorScheme-Text" d="m9 4s-5 0-5 5c0.99882-1.9976 1.9985-2.9976 4.9902-3-0.011958 10.937-2.9877 11.692-2.9902 13.438 1.5008 1.1521 3.8454 0.5135 4.0176-1.75l0.97656-11.688h3.9844l-0.97852 11.75c0 3 4 3 5 0l1-3c-1 2-3.9998 5-3.9121 1.9473l0.89062-10.697h3.0215v-2h-11z" fill="currentColor"/>
</svg>
